X:613
T: WAHRE FREUNDSCHAFT SOLL NICHT WANKEN
N: E0568A
O: Europa, Mitteleuropa, Deutschland, Thueringen
R: Liebes - Lied, Treue, Abschied
M: 3/4
L: 1/8
K: F
AG | F2F2AB | AGG2
FD | C2FABc | A2z2
FF | d3df2ed | dcc2z2
Ac | c2dcB3E | F4z2

